X: 413
M: C|
L: 1/8
K: Dm
e2d2 e2^c2 | d6 :|\
|: fg |\
a2f2 f2ga | g2c2 c2de |
f2d2 d2ef | e2A2 A2FG |\
e2d2 e2^c2 | d6 :|

